picto/sitting-prohibited-left.svg

<svg class="color-immutable" width="24" height="24" viewBox="0 0 24 24" fill="none" xmlns="http://www.w3.org/2000/svg"><path d="M0 22.5V1.5C0 0.675 0.675 0 1.5 0H22.5C23.325 0 24 0.675 24 1.5V22.5C24 23.325 23.325 24 22.5 24H1.5C0.675 24 0 23.325 0 22.5Z" fill="#2D327D"/><path d="M13.5 5.625C13.5 6.453 12.828 7.125 12 7.125C11.172 7.125 10.5 6.453 10.5 5.625C10.5 4.797 11.172 4.125 12 4.125C12.828 4.125 13.5 4.797 13.5 5.625Z" fill="white"/><path d="M13.5 12.423V9.35199C13.5 8.43299 12.755 7.68799 11.836 7.68799C11.241 7.68799 10.692 8.00499 10.395 8.51999L10.103 9.02599L13.5 12.423Z" fill="white"/><path d="M9.32598 10.37L8.01698 12.638C7.86198 12.907 7.95398 13.251 8.22298 13.406C8.49198 13.561 8.83598 13.469 8.99098 13.2L10.125 11.236V13.875H8.16898C7.63298 13.875 7.13798 14.161 6.86998 14.625L4.54498 18.65C4.36398 18.964 4.47098 19.365 4.78498 19.546C5.09898 19.727 5.49998 19.62 5.68098 19.306L7.95098 15.374H12.749C13.163 15.374 13.499 15.038 13.499 14.624V14.543L9.32598 10.37Z" fill="white"/><path d="M16.5 15.423V12.75H20.625C20.832 12.75 21 12.582 21 12.375C21 12.168 20.832 12 20.625 12H16.125C15.918 12 15.75 12.168 15.75 12.375V14.673L16.5 15.423Z" fill="white"/><path d="M15.081 16.125H9.75C9.543 16.125 9.375 16.293 9.375 16.5V20.25H3.375C3.168 20.25 3 20.418 3 20.625C3 20.832 3.168 21 3.375 21H9.75C9.957 21 10.125 20.832 10.125 20.625V16.875H15.831L15.081 16.125Z" fill="white"/><path d="M3.70829 2.63129L2.64764 3.69194L19.9893 21.0336L21.0499 19.9729L3.70829 2.63129Z" fill="#EB0000"/></svg>

<svg class="color-immutable" width="24" height="24" viewBox="0 0 24 24" fill="none" xmlns="http://www.w3.org/2000/svg"><g clip-path="url(#a)"><path d="M0 22.5v-21C0 .675.675 0 1.5 0h21c.825 0 1.5.675 1.5 1.5v21c0 .825-.675 1.5-1.5 1.5h-21C.675 24 0 23.325 0 22.5Z" fill="#2D327D"/><path d="M13.5 5.625a1.5 1.5 0 1 1-3.001-.001 1.5 1.5 0 0 1 3.001.001ZM13.5 12.423V9.352a1.664 1.664 0 0 0-3.105-.832l-.292.506 3.397 3.397ZM9.326 10.37l-1.309 2.268a.562.562 0 0 0 .974.562l1.134-1.964v2.639H8.169a1.5 1.5 0 0 0-1.299.75L4.545 18.65a.656.656 0 1 0 1.136.656l2.27-3.932h4.798a.75.75 0 0 0 .75-.75v-.081L9.326 10.37ZM16.5 15.423V12.75h4.125a.375.375 0 0 0 0-.75h-4.5a.375.375 0 0 0-.375.375v2.298l.75.75Z" fill="#fff"/><path d="M15.081 16.125H9.75a.375.375 0 0 0-.375.375v3.75h-6a.375.375 0 0 0 0 .75H9.75a.375.375 0 0 0 .375-.375v-3.75h5.706l-.75-.75Z" fill="#fff"/><path d="m3.708 2.631-1.06 1.06 17.341 17.343 1.06-1.061L3.71 2.63Z" fill="#EB0000"/></g><defs><clipPath id="a"><path fill="#fff" d="M0 0h24v24H0z"/></clipPath></defs></svg>
